remix/Buildings/home-4-line.svg

<svg viewBox="0 0 24 24" fill="currentColor" xmlns="http://www.w3.org/2000/svg"><path d="M19 21H5C4.44772 21 4 20.5523 4 20V11L1 11L11.3273 1.6115C11.7087 1.26475 12.2913 1.26475 12.6727 1.6115L23 11L20 11V20C20 20.5523 19.5523 21 19 21ZM13 19H18V9.15745L12 3.7029L6 9.15745V19H11V13H13V19Z"/></svg>

<svg viewBox="0 0 24 24" xmlns="http://www.w3.org/2000/svg"><path fill="none" d="M0 0h24v24H0Z"/><path d="M19 21H5v0c-.56 0-1-.45-1-1v-9H1l10.327-9.388v0c.38-.35.96-.35 1.346 0L23 11h-3v9 0c0 .55-.45 1-1 1Zm-6-2h5V9.157L12 3.7 6 9.157V19h5v-6h2v6Z"/></svg>
